X: 32
T: Peacherine Rag
C: Scott Joplin
%%abc-version 2.0
%%abcx-abcm2ps-target-version 5.9.1 (29 Sep 2008)
%%abc-creator hum2abc beta
%%abcx-conversion-date 2021/07/20 09:00:57
%%abc-copyright Copyright 2001 by Craig Stuart Sapp
%%abc-edited-by Craig Stuart Sapp
%%abc-edited-by Craig Stuart Sapp
%%abcx-initial-encoding-date 2001
%%humdrum-veritas 2544730654
%%humdrum-veritas-data 2651280408
%%removed 0's from note length
%%linebreak <none>
%%barnumbers 0
L: 1/8
M: 2/4
N: Derived from peacherine.krn
Q: "Not too fast." 1/4=100
%%staves {1 2}
V: 1 clef=treble
V: 2 clef=bass
K: Eb
[V:1] e/f/g/f/- fB [I:setbarnb 2]| 
[V:2] E,/F,/G,/F,/- F,B,, | 
[V:1] f/g/a/g/- gB | 
[V:2] F,/G,/A,/G,/- G,B,, | 
[V:1] c/c=B/ c/d/e | 
[V:2] C,/C,=B,,/ C,/D,/E, | 
[V:1] _B B- B/G/A/=A/ ]|:  
[V:2] _B,,B,,2z ]|:  
[V:1] B[eG] [dG][cG] | 
[V:2] E,[EB,G,] B,,[EB,G,] | 
[V:1] [B/G/][eG][d/G/]- [d/G/]c/B/G/ | 
[V:2] E,[EB,G,] B,,[EB,G,] | 
[V:1] [BG][eG] [dG][cG] | 
[V:2] E,[EB,G,] B,,[EB,G,] | 
[V:1] [B/A/][dA][c/A/]- [c/A/]B/F/G/ | 
[V:2] F,[DB,A,] B,,[DB,A,] | 
[V:1] A[dA] [cA][BA] | 
[V:2] F,[DB,A,] B,,[DB,A,] | 
[V:1] A/[dA][c/A/]- [c/A/]B/d/f/ | 
[V:2] F,[DB,A,] B,,[DB,A,] | 
[V:1] [adA][a2d2A2][=ae=A] | 
[V:2] F,[DB,] ^F,[ECF,] | 
[V:1] z e/f/ g/ z/ z & [b2e2B2]-[b/e/B/]G/A/=A/ | 
[V:2] G,2[EB,] z & G,[EB,]x2 | 
[V:1] B[eG] [dG][cG] | 
[V:2] E,[EB,G,] B,,[EB,G,] | 
[V:1] [B/G/][eG][d/G/]- [d/G/]c/B/G/ | 
[V:2] E,[EB,G,] B,,[EB,G,] | 
[V:1] [gG][g2=B2G2][gBG] | 
[V:2] =B,,[FDG,] G,,[FDG,] | 
[V:1] z c'/d'/ e' z & [e3c3G3]c | 
[V:2] C,[ECG,] [ECG,] z | 
[V:1] [fec][fec] [^fec][fec] | 
[V:2] [A,2A,,2][=A,2=A,,2] | 
[V:1] [g/e/B/][geB][b/B/] [a=ecB][gecB] | 
[V:2] [B,B,,][EB,G,] C,[=ECB,G,] | 
[V:1] [g/=A/][gA][e/A/] f/e/ [fA] & x2_Ax |[1 
[V:2] [_ECF,][ECF,] [DB,][DB,] | 
[V:1] [e2G2]-[e/G/]G/A/=A/ :|][2 
[V:2] [EE,][EB,G,] [EB,G,] z :|]  
[V:1] [e2G2]-[eG] z ]|: 
[V:2] [EE,][B,B,,] [E,E,,]F,, ]|:  
[V:1]  [K:Bb] z [feA][geA][feA] | 
[V:2]  [K:Bb] C,[ECF,] F,,[ECF,] | 
[V:1] z [c'ae][d'ae][c'ae] | 
[V:2] C,[EA,F,] F,,[EA,F,] | 
[V:1] z [bd][ad][gd] | 
[V:2] B,,[DB,F,] F,,[DB,F,] | 
[V:1] [g/d/]f/=e/f/- f/g/f | 
[V:2] B,,[DB,F,] F,,[DB,F,] | 
[V:1] z [e'ae][e'ae][d'ae] | 
[V:2] C,[ECF,] F,,[EA,F,] | 
[V:1] d'/c'/=b/c'/- c'/f'/f & [a3e3]z | 
[V:2] C,[EA,F,] F,,[EA,F,] | 
[V:1] z [d'bd][d'fd][c'fd] | 
[V:2] B,,[DB,F,] F,,[DB,F,] | 
[V:1] c'/b/a/b/- b/f'/f & [f3d3]z | 
[V:2] B,,[DB,F,] F,,[DB,F,] | 
[V:1] z [feA][geA][feA] | 
[V:2] C,[ECF,] F,,[ECF,] | 
[V:1] z [c'ae][d'ae][c'ae] | 
[V:2] C,[EA,F,] F,,[EA,F,] | 
[V:1] z [bd][ad][gd] | 
[V:2] B,,[DB,F,] F,,[DB,F,] | 
[V:1] [g/d/]f/=e/f/- f/d/_e/f/ | 
[V:2] B,,[DB,F,] F,,[DB,F,] | 
[V:1] [g/G/][e/B/][g/G/][a/A/]- [a/A/][gG][e/B/] | 
[V:2] [E,E,,][E,E,,] [F,F,,][E,E,,] | 
[V:1] [f/F/][d/B/][f/F/][g/G/]- [g/G/][fF]B/ | 
[V:2] [D,D,,][D,D,,] [E,E,,][D,D,,] | 
[V:1] [d/B/=E/][dBE][d/B/E/] c/B/ [cAE] & x2[A_E]x |[1 
[V:2] [C,C,,][C,C,,] [F,F,,][F,F,,] | 
[V:1] [B2D2]-[BD] z :|][2 
[V:2] [B,B,,][B,F,] [B,F,]F,, :|]  
[V:1] [B2D2][B2_A2D2] || 
[V:2] [B,B,,][F,F,,][B,,2B,,,2] ||  
[V:1]  [K:Eb] B[eG] [dG][cG] | 
[V:2]  [K:Eb] E,[EB,G,] B,,[EB,G,] | 
[V:1] [B/G/][eG][d/G/]- [d/G/]c/B/G/ | 
[V:2] E,[EB,G,] B,,[EB,G,] | 
[V:1] [BG][eG] [dG][cG] | 
[V:2] E,[EB,G,] B,,[EB,G,] | 
[V:1] [B/A/][dA][c/A/]- [c/A/]B/F/G/ | 
[V:2] F,[DB,A,] B,,[DB,A,] | 
[V:1] A[dA] [cA][BA] | 
[V:2] F,[DB,A,] B,,[DB,A,] | 
[V:1] A/[dA][c/A/]- [c/A/]B/d/f/ | 
[V:2] F,[DB,A,] B,,[DB,A,] | 
[V:1] [adA][a2d2A2][=ae=A] | 
[V:2] F,[DB,] ^F,[ECF,] | 
[V:1] z e/f/ g/ z/ z & [b2e2B2]-[b/e/B/]G/A/=A/ | 
[V:2] G,[EB,] [EB,] z | 
[V:1] B[eG] [dG][cG] | 
[V:2] E,[EB,G,] B,,[EB,G,] | 
[V:1] [B/G/][eG][d/G/]- [d/G/]c/B/G/ | 
[V:2] E,[EB,G,] B,,[EB,G,] | 
[V:1] [gG][g2=B2G2][fBG] | 
[V:2] =B,,[FDG,] G,,[FDG,] | 
[V:1] z c'/d'/ e' z & [e3c3G3]c | 
[V:2] C,[ECG,] [ECG,] z | 
[V:1] [fec][fec] [^fec][fec] | 
[V:2] [A,2A,,2][=A,2=A,,2] | 
[V:1] [g/e/B/][geB][b/B/] [a=eB][geB] | 
[V:2] [B,B,,][EB,G,] C,[=ECG,] | 
[V:1] [g/=A/][gA][e/A/] f/e/ [fA] & x2_Ax | 
[V:2] [_ECF,][ECF,] [DB,][DB,] | 
[V:1] [e2G2][e_dG] z ]|:  
[V:2] [EE,][B,B,,] [E,E,,] z ]|:  
[V:1]  [K:Ab] [e/E/]c/[e/E/]A/ c/[eE]A/ | 
[V:2]  [K:Ab] [A,A,,][CA,E,] [A,A,,][CA,E,] | 
[V:1] [c/E/]=A/[c/E/][d/A/E/]- [d/A/E/][cAE]A/ | 
[V:2] [=A,=A,,][A,A,,] [F,F,,][F,F,,] | 
[V:1] [c_AF=D][B/A/F/D/][c/A/F/D/]- [c/A/F/D/]B/A/F/ | 
[V:2] [=D,=D,,][D,D,,] [B,,B,,,][B,,B,,,] | 
[V:1] [cA=D][B/A/D/][c/A/D/]- [c/A/D/]B/A/F/ | 
[V:2] [F,F,,][F,F,,] [B,,B,,,][B,,B,,,] | 
[V:1] d2B/[dF]G/ & E3/F//G//x2 | 
[V:2] [E,E,,][DG,E,] [G,G,,][DB,E,] | 
[V:1] d2B/[dF]F/ & E3/F//G//x2 | 
[V:2] [B,B,,][DB,G,] [E,E,,][DB,G,] | 
[V:1] [cE][c/=E/][c/F/]- [c/F/][cA][c/F/] | 
[V:2] [A,A,,][CA,E,] [E,E,,][CA,E,] | 
[V:1] [c_E][c/=E/][cF]<- [cF]A//c// | 
[V:2] [A,A,,][CA,E,] [E,E,,][CA,E,] | 
[V:1] [e/E/]c/[e/E/]A/ c/[eE]A/ | 
[V:2] [A,A,,][CA,E,] [E,E,,][CA,E,] | 
[V:1] [c/E/]=A/[c/E/][d/A/E/]- [d/A/E/][cAE]A/ | 
[V:2] [=A,=A,,][A,A,,] [F,F,,][F,F,,] | 
[V:1] [c_AF=D][B/A/F/D/][c/A/F/D/]- [c/A/F/D/]B/A/F/ | 
[V:2] [=D,=D,,][D,D,,] [B,,B,,,][B,,B,,,] | 
[V:1] [cA=D][B/A/D/][c/A/D/]- [c/A/D/]B/A/F/ | 
[V:2] [F,F,,][F,F,,] [B,,B,,,][B,,B,,,] | 
[V:1] d2B/[dF]G/ & E3/F//G//x2 | 
[V:2] [E,E,,][DG,E,] [G,G,,][DB,E,] | 
[V:1] E/G/F/G/ d/[GD][A/C/]- |[1 
[V:2] [B,B,,][DG,E,] [E,E,,][B,G,E,] | 
[V:1] [A4C4]- | 
[V:2] [A,A,,][E,/E,,/][F,/F,,/]- [F,/F,,/][E,/E,,/][F,/F,,/][G,/G,,/] | 
[V:1] [AC] {/f} e {/F}EA/c/ :|][2 
[V:2] [A,A,,] zz2 :|]  
[V:1] [A4C4]- | 
[V:2] [A,A,,][E,E,,] [F,/F,,/][E,E,,][C,/C,,/] | 
[V:1] [AC] z [acA]E ]|: 
[V:2] [A,,A,,,] z [A,,A,,,] z ]|:  
[V:1] G/Bc/ dg/f/ | 
[V:2] [B,B,,][DG,E,] [E,E,,][DG,E,] | 
[V:1] [ed][e2d2]E | 
[V:2] [G,G,,][DB,E,] [E,E,,][DG,E,] | 
[V:1] A/cd/ ea/f/ | 
[V:2] [A,A,,][CA,E,] [E,E,,][CA,E,] | 
[V:1] [ec][e2c2][ec] | 
[V:2] A,,[CA,E,] C,,[CA,E,] | 
[V:1] [f/d/][fd][f/d/]- [f/d/]a/b/a/ | 
[V:2] D,,[DA,F,] D,,[DA,_F,] | 
[V:1] [c'c][c'c]- [c'/c/][e'/e/][=d'/=d/][c'/c/] | 
[V:2] A,,[CA,E,] =A,,[EC=A,^F,] | 
[V:1] [b/B/]g/c'/b/ a/=db/ | 
[V:2] B,,[EB,G,] B,,[=DB,A,F,] | 
[V:1] e z [e'ge]E | 
[V:2] [EB,G,E,][G,/G,,/][B,/B,,/] [E,E,,] z | 
[V:1] G/Bc/ dg/f/ | 
[V:2] [B,B,,][DG,E,] [E,E,,][DB,E,] | 
[V:1] [ed][e2d2]E | 
[V:2] [G,G,,][DB,E,] [E,E,,][DG,E,] | 
[V:1] A/cd/ ea/f/ | 
[V:2] [A,A,,][CA,E,] [E,E,,][CA,E,] | 
[V:1] [ec][e2c2][ec] | 
[V:2] A,,[CA,E,] C,,[CA,E,] | 
[V:1] [f/d/][fd][f/=B/]- f/a/g/f/ & x2B2 | 
[V:2] D,,[DA,F,] =D,,[=B,A,F,] | 
[V:1] [ec][ec]- [e/c/]e/c/B/ | 
[V:2] E,,[CA,E,] [E,E,,][=E,=E,,] | 
[V:1] [A=D][AD] [B/G/_D/][BGD]E/ |[1 
[V:2] [F,F,,][F,F,,] [_E,_E,,][G,G,,] | 
[V:1] [AC]e/e/ eE :|][2 
[V:2] [A,A,,] zz2 :|]  
[V:1] [A2C2][acA] z |]  
[V:2] [A,A,,][E,E,,] [A,,A,,,] z |]  


